app/assets/images/icons/google.svg

<?xml version="1.0" encoding="UTF-8" standalone="no"?>
<svg width="30px" height="30px" viewBox="0 0 30 30" version="1.1" xmlns="http://www.w3.org/2000/svg" xmlns:xlink="http://www.w3.org/1999/xlink">
    <!-- Generator: Sketch 3.7.2 (28276) - http://www.bohemiancoding.com/sketch -->
    <title>google</title>
    <desc>Created with Sketch.</desc>
    <defs></defs>
    <g id="Icons" stroke="none" stroke-width="1" fill="none" fill-rule="evenodd">
        <g id="google" fill="#050505">
            <path d="M0,3.9992748 C0,1.79053632 1.78679466,0 3.9992748,0 L26.0007252,0 C28.2094637,0 30,1.78679466 30,3.9992748 L30,26.0007252 C30,28.2094637 28.2132053,30 26.0007252,30 L3.9992748,30 C1.79053632,30 0,28.2132053 0,26.0007252 L0,3.9992748 Z M15.5,22.3103448 C17.4186091,22.3103448 19.3978128,21.6578844 20.7241379,20.4482759 C22.261251,19.0464287 23,16.9247029 23,14.6551724 C23,14.2034189 22.9648249,13.7560422 22.8965344,13.317873 C22.8892871,13.2713724 15.6551724,13.3178731 15.6551724,13.3178731 L15.6551724,16.3103448 L19.7931034,16.3103448 C19.7931034,16.3103448 19.7931034,16.7241379 19.152466,17.6387926 C18.5118285,18.5534473 19.0960194,17.7234506 19.0689655,17.7586207 C18.0344828,19.1034483 16.4062279,19.3432986 15.5,19.3103448 C13.9560189,19.2542001 12.7753289,18.3885431 12.0344828,17.3448276 C11.4102995,16.4654686 11.1034483,15.4788639 11.1034483,14.5517241 C11.1034483,12.1279776 12.9655172,10 15.3448276,10 C17.7241379,10 18.6551724,11.137931 18.6551724,11.137931 L20.7564287,8.94583588 C20.7564287,8.94583588 20.1385866,8.37544335 19.7931034,8.13793103 C18.597816,7.31619625 17.0495187,7 15.5,7 C11.3578644,7 8,10.4273374 8,14.6551724 C8,18.8830074 11.3578644,22.3103448 15.5,22.3103448 Z" id="Oval-34"></path>
        </g>
    </g>
</svg>

<?xml version="1.0" encoding="UTF-8" standalone="no"?>
<svg width="30" height="30" viewBox="0 0 30 30" xmlns="http://www.w3.org/2000/svg">
  <path d="M0 4c0-2.21 1.787-4 4-4h22c2.21 0 4 1.787 4 4v22c0 2.21-1.787 4-4 4H4c-2.21 0-4-1.787-4-4V4zm15.5 18.31c1.919 0 3.898-.652 5.224-1.862C22.261 19.046 23 16.925 23 14.655c0-.452-.035-.899-.103-1.337-.008-.047-7.242 0-7.242 0v2.992h4.138s0 .414-.64 1.329c-.641.914-.057.084-.084.12-1.035 1.344-2.663 1.584-3.569 1.551-1.544-.056-2.725-.921-3.466-1.965-.624-.88-.93-1.866-.93-2.793 0-2.424 1.862-4.552 4.24-4.552 2.38 0 3.311 1.138 3.311 1.138l2.101-2.192s-.617-.57-.963-.808C18.598 7.316 17.05 7 15.5 7 11.358 7 8 10.427 8 14.655s3.358 7.655 7.5 7.655z" fill="#050505" fill-rule="evenodd"/>
</svg>
